X:1
T:Astiterunt reges terrae - Zoilo
T:#
%%score [ 1 { 2 | 3 } 4 ]
L:1/8
Q:1/4=200
M:none
K:F
V:1 treble nm="Alto" snm="A"
V:2 treble-8 nm="Tenor I" snm="T"
V:3 treble-8 
V:4 bass nm="Bass" snm="B"
V:1
"^Astiterunt reges terrae""^Annibale Zoilo\n(c.1537-92)" D8 D4 D4- | D4 D4 E4 F4 | G8 ^F8 | %3
w: A- sti- te\-|* runt re- ges|ter- rae,|
 z4 F4 F6 F2 | F4 F6 F2 D4 |[M:4/2] D4 F4 F8- | F8 D4 D4 | D16 | !fermata!D16 ||[M:3/2] C4 C4 C4 | %10
w: et prin- ci-|pes con- ve- ne-|runt in u\-|* num, in|u-|num.|Ad- ver- sus|
 C8 C4 || D8 z8 |[M:4/2] z16 | z8 G8- | G4 F4 _E4 D2 C2- | C2 F2 (_E2 D4 CB, C4 | %16
w: Do- mi-|num,||et|* ad- ver- sus Chri\-|* stum e\- * * * *|
 D8) !fermata!D16 ||[M:4/2] z16 | z16 | z16 | z16 | z16 |[M:4/2] z16 | z16 | z16 | z16 | z16 | %27
w: * ius.|||||||||||
[M:3/2] C4 C4 C4 | C8 C4 | D8 z8 | z16 |[M:4/2] z8 G8- | G4 F4 _E4 D2[Q:1/4=198] C2- | %33
w: Ad- ver- sus|Do- mi-|num,||et|* ad- ver- sus Chri\-|
[Q:1/4=196] C2[Q:1/4=193] F2[Q:1/4=191] (_E2[Q:1/4=187] D4[Q:1/4=184] C[Q:1/4=183]B,[Q:1/4=180] C4 | %34
w: * stum e\- * * * *|
[Q:1/4=174] D8)[Q:1/4=170] !fermata!D16 |] x24 |] %36
w: * ius.||
V:2
 A8 A4 A4- | A4 =B4 c4 d4- | d4 c4 d8 | z4 d4 c6 c2 | c4 d6 c2 B4 |[M:4/2][K:treble-8] A4 d4 (d8 | %6
w: A- sti- te\-|* runt re- ges|* ter- rae,|et prin- ci-|pes con- ve- ne-|runt in u\-|
 c8) B4 B4 | (B8 A8) | !fermata!=B16 ||[M:3/2] G4 G4 G4 | G8 A4 || B8 d6 c2 | %12
w: * num, in|u\- *|num.|Ad- ver- sus|Do- mi-|num, et ad-|
[M:4/2][K:treble-8] B4 A4 G4 (A2 G2- | G2 ^FE F4) G8 | z8 z4 f4- | f4 B4 (B4 A2 G2 | %16
w: ver- sus Chri- stum e\-|* * * * ius,|Chri\-|* stum e\- * *|
 A8) !fermata!=B16 ||[M:4/2][K:treble-8]"^Duo""^T" x16 | x16 | x16 | x16 | x16 |"^T" x16 | x16 | %24
w: * ius.||||||||
 x16 | x16 | x16 |[M:3/2][K:treble-8] G4 G4 G4 | G8 A4 |[M:3/2] B8 d6 x2 | c2 B4 A4 G4 x2 | %31
w: |||Ad- ver- sus|Do- mi-|num, et|ad- ver- sus Chri-|
 (A2 G2-) x12 |[M:4/2][K:treble-8] (G2 ^FE F4) G8 | z8 z4 f4- | f4 B4 (B4 A2 G2 x8 |] %35
w: stum e\-|* * * * ius,|Chri\-|* stum e\- * *|
 A8) !fermata!=B16 |] %36
w: * ius.|
V:3
 ^F8 F4 F4- | F4 G4 G4 B4 | (B4 A2 G2) A8 | z4 B4 A6 A2 | A4 B6 A2 G4 | %5
w: A- sti- te\-|* runt re- ges|ter\- * * rae,|et prin- ci-|pes con- ve- ne-|
[M:4/2][K:treble-8] F4 B4 (A4 B4- | B2 AG A4) F4 G4 | (F2 D2 G6 ^FE F4) | !fermata!G16 || %9
w: runt in u\- *|* * * * num, in|u\- * * * * *|num.|
[M:3/2] E4 E4 E4 | E8 E4 || F8 A6 G2 |[M:4/2][K:treble-8] F4 E4 D4 E4 | C8 D8 | d6 c2 B4 A4 | %15
w: Ad- ver- sus|Do- mi-|num, et ad-|ver- sus Chri- stum|e- ius,|et ad- ver- sus|
 (A4 G2 F2 G4) G4 | (^F2 G4 F2) !fermata!G16 ||[M:4/2] z8[I:staff -1] D8- | D4 E4 F4 G4 | %19
w: Chri\- * * * stum|e\- * * ius.|Qua\-|* re fre- mu-|
 (A6 B2 c4) d4- | d4 ^c4 d8- | d8[I:staff +1] z4[I:staff -1] d4 | d4 c4 A4 c4- | c4 B4 G4 A4 | %24
w: e\- * * runt|* Gen- tes,|* et|po- pu- li- me\-|* di- ta- ti|
 B4 c4 (A4 B4- | B4 A2 G2 A4) A4 | !fermata!G16 |[M:3/2][I:staff +1][K:treble-8] E4 E4 E4 | E8 E4 | %29
w: sunt in- a\- *|* * * * ni-|a.|Ad- ver- sus|Do- mi-|
[M:3/2] F8 A6 G2 | F4 E4 D4 E4 | x16 |[M:4/2][K:treble-8] C8 D8 | d6 c2 B4 A4 | %34
w: num, et ad-|ver- sus Chri- stum||e- ius,|et ad- ver- sus|
 (A4 G2 F2 G4) G4 x8 |] (^F2 G4 F2) !fermata!G16 |] %36
w: Chri\- * * * stum|e\- * * ius.|
V:4
 D,8 D,4 D,4- | D,4 G,,4 C,4 B,,4 | _E,8 D,8 | z4 B,,4 F,6 F,2 | F,4 B,6 F,2 G,4 | %5
w: A- sti- te\-|* runt re- ges|ter- rae,|et prin- ci-|pes con- ve- ne-|
[M:4/2] D,4 B,,4 (D,6 _E,2 | F,8) B,,4 G,,4 | (B,,6 C,2 D,8) | !fermata!G,,16 || %9
w: runt in u\- *|* num, in|u\- * *|num.|
[M:3/2] C,4 C,4 C,4 | C,8 C,4 || B,,8 F,6 E,2 |[M:4/2] D,4 C,4 B,,4 C,4 | A,,8 G,,8 | %14
w: Ad- ver- sus|Do- mi-|num, et ad-|ver- sus Chri- stum|e- ius,|
 B,6 A,2 G,4 F,4 | F,4 G,4 (_E,8 | D,8) !fermata!G,,16 || G,,12 A,,4 | B,,4 C,4 D,4 E,4 | %19
w: et ad- ver- sus|Chri- stum e\-|* ius.|Qua- re|fre- mu- e- runt|
 (F,12 E,2 D,2 | E,8) D,8 | z4 G,4 G,4 F,4 | D,4 F,8 E,4 | C,4 D,4 E,4 C,4 | (D,4 E,4 F,4 G,4 | %25
w: Gen\- * *|* tes,|et po- pu-|li- me- di-|ta- ti sunt in-|a\- * * *|
 D,4 G,8) ^F,4 | !fermata!G,16 |[M:3/2] C,4 C,4 C,4 | C,8 C,4 | B,,8 F,6 E,2 | D,4 C,4 B,,4 C,4 | %31
w: * * ni-|a.|Ad- ver- sus|Do- mi-|num, et ad-|ver- sus Chri- stum|
[M:4/2] A,,8 G,,8 | B,6 A,2 G,4 F,4 | F,4 G,4 (_E,8 | D,8) !fermata!G,,16 |] x24 |] %36
w: e- ius,|et ad- ver- sus|Chri- stum e\-|* ius.||

